public/figma-home/vector.svg

<svg preserveAspectRatio="none" width="100%" height="100%" overflow="visible" style="display: block;" viewBox="0 0 24 24" fill="none" xmlns="http://www.w3.org/2000/svg">
<path id="Vector" d="M7.35 23.0556C5.89 22.4252 4.6152 21.5652 3.5256 20.4756C2.436 19.386 1.576 18.1108 0.9456 16.65C0.3152 15.1892 0 13.6344 0 11.9856C0 10.3368 0.3152 8.7868 0.9456 7.3356C1.576 5.8844 2.436 4.6144 3.5256 3.5256C4.6152 2.4368 5.89 1.5768 7.35 0.945602C8.81 0.314402 10.3652 -0.000798481 12.0156 1.51899e-06C13.666 0.000801519 15.216 0.316002 16.6656 0.945602C18.1152 1.5752 19.3852 2.4352 20.4756 3.5256C21.566 4.616 22.426 5.886 23.0556 7.3356C23.6852 8.7852 24 10.3352 24 11.9856C24 13.636 23.6852 15.1908 23.0556 16.65C22.426 18.1092 21.566 19.3844 20.4756 20.4756C19.3852 21.5668 18.1152 22.4268 16.6656 23.0556C15.216 23.6844 13.666 23.9992 12.0156 24C10.3652 24.0008 8.81 23.686 7.35 23.0556ZM12 21.54C12.52 20.82 12.97 20.07 13.35 19.29C13.73 18.51 14.04 17.68 14.28 16.8H9.72C9.96 17.68 10.27 18.51 10.65 19.29C11.03 20.07 11.48 20.82 12 21.54ZM8.88 21.06C8.52 20.4 8.2052 19.7148 7.9356 19.0044C7.666 18.294 7.4408 17.5592 7.26 16.8H3.72C4.3 17.8 5.0252 18.67 5.8956 19.41C6.766 20.15 7.7608 20.7 8.88 21.06ZM15.12 21.06C16.24 20.7 17.2352 20.15 18.1056 19.41C18.976 18.67 19.7008 17.8 20.28 16.8H16.74C16.56 17.56 16.3352 18.2952 16.0656 19.0056C15.796 19.716 15.4808 20.4008 15.12 21.06ZM2.7 14.4H6.78C6.72 14 6.6752 13.6052 6.6456 13.2156C6.616 12.826 6.6008 12.4208 6.6 12C6.5992 11.5792 6.6144 11.1744 6.6456 10.7856C6.6768 10.3968 6.7216 10.0016 6.78 9.6H2.7C2.6 10 2.5252 10.3952 2.4756 10.7856C2.426 11.176 2.4008 11.5808 2.4 12C2.3992 12.4192 2.4244 12.8244 2.4756 13.2156C2.5268 13.6068 2.6016 14.0016 2.7 14.4ZM9.18 14.4H14.82C14.88 14 14.9252 13.6052 14.9556 13.2156C14.986 12.826 15.0008 12.4208 15 12C14.9992 11.5792 14.984 11.1744 14.9544 10.7856C14.9248 10.3968 14.88 10.0016 14.82 9.6H9.18C9.12 10 9.0752 10.3952 9.0456 10.7856C9.016 11.176 9.0008 11.5808 9 12C8.9992 12.4192 9.0144 12.8244 9.0456 13.2156C9.0768 13.6068 9.1216 14.0016 9.18 14.4ZM17.22 14.4H21.3C21.4 14 21.4752 13.6052 21.5256 13.2156C21.576 12.826 21.6008 12.4208 21.6 12C21.5992 11.5792 21.5744 11.1744 21.5256 10.7856C21.4768 10.3968 21.4016 10.0016 21.3 9.6H17.22C17.28 10 17.3252 10.3952 17.3556 10.7856C17.386 11.176 17.4008 11.5808 17.4 12C17.3992 12.4192 17.384 12.8244 17.3544 13.2156C17.3248 13.6068 17.28 14.0016 17.22 14.4ZM16.74 7.2H20.28C19.7 6.2 18.9752 5.33 18.1056 4.59C17.236 3.85 16.2408 3.3 15.12 2.94C15.48 3.6 15.7952 4.2852 16.0656 4.9956C16.336 5.706 16.5608 6.4408 16.74 7.2ZM9.72 7.2H14.28C14.04 6.32 13.73 5.49 13.35 4.71C12.97 3.93 12.52 3.18 12 2.46C11.48 3.18 11.03 3.93 10.65 4.71C10.27 5.49 9.96 6.32 9.72 7.2ZM3.72 7.2H7.26C7.44 6.44 7.6652 5.7048 7.9356 4.9944C8.206 4.284 8.5208 3.5992 8.88 2.94C7.76 3.3 6.7648 3.85 5.8944 4.59C5.024 5.33 4.2992 6.2 3.72 7.2Z" fill="var(--fill-0, white)"/>
</svg>

<svg xmlns="http://www.w3.org/2000/svg" fill="none" overflow="visible" preserveAspectRatio="none" style="display:block" viewBox="0 0 24 24"><path fill="var(--fill-0, white)" d="M7.35 23.056a12.2 12.2 0 0 1-3.824-2.58 12.2 12.2 0 0 1-2.58-3.826A11.65 11.65 0 0 1 0 11.986q0-2.475.946-4.65a12.2 12.2 0 0 1 2.58-3.81A12.2 12.2 0 0 1 7.35.946 11.6 11.6 0 0 1 12.016 0q2.475 0 4.65.946 2.175.945 3.81 2.58t2.58 3.81Q24 9.51 24 11.986t-.944 4.664a12.2 12.2 0 0 1-2.58 3.826 12.2 12.2 0 0 1-3.81 2.58q-2.175.942-4.65.944-2.476 0-4.666-.944M12 21.54q.78-1.08 1.35-2.25t.93-2.49H9.72q.36 1.32.93 2.49T12 21.54m-3.12-.48a17 17 0 0 1-.944-2.056A18 18 0 0 1 7.26 16.8H3.72q.87 1.5 2.176 2.61Q7.2 20.52 8.88 21.06m6.24 0a8.6 8.6 0 0 0 2.986-1.65 10 10 0 0 0 2.174-2.61h-3.54q-.27 1.14-.674 2.206-.405 1.065-.946 2.054M2.7 14.4h4.08A16 16 0 0 1 6.6 12q-.001-.631.046-1.214.046-.584.134-1.186H2.7q-.15.6-.224 1.186A9.8 9.8 0 0 0 2.7 14.4m6.48 0h5.64q.09-.6.136-1.184Q15 12.63 15 12a16.4 16.4 0 0 0-.18-2.4H9.18A16 16 0 0 0 9 12q-.001.629.046 1.216.046.586.134 1.184m8.04 0h4.08q.15-.6.226-1.184.075-.585.074-1.216t-.074-1.214A10 10 0 0 0 21.3 9.6h-4.08q.09.6.136 1.186.045.585.044 1.214 0 .629-.046 1.216-.045.586-.134 1.184m-.48-7.2h3.54q-.87-1.5-2.174-2.61a8.6 8.6 0 0 0-2.986-1.65q.54.99.946 2.056.405 1.065.674 2.204m-7.02 0h4.56q-.36-1.32-.93-2.49T12 2.46q-.78 1.08-1.35 2.25T9.72 7.2m-6 0h3.54q.27-1.14.676-2.206.405-1.065.944-2.054a8.6 8.6 0 0 0-2.986 1.65A10 10 0 0 0 3.72 7.2"/></svg>
